images/tappollo-20media.svg

<svg fill="none" height="27" viewBox="0 0 100 27" width="100" xmlns="http://www.w3.org/2000/svg"><g fill="#fff"><path d="m23.0346 12.4138h2.9793v-9.40142h3.4262v-2.4331h-9.8483v2.4331h3.4428z"/><path d="m35.3501 9.94756.7614 2.46624h2.9793l-4.2704-11.83452h-2.9793l-4.2869 11.83452h2.9793l.7614-2.46624zm-3.3766-2.26759 1.3407-4.36965h.0331l1.3407 4.36965z"/><path d="m39.2607 12.4138h2.9793v-4.28693h2.7641c2.4662 0 4.0055-1.29104 4.0055-3.7738s-1.5393-3.77379-4.0055-3.77379h-5.7434zm2.9793-9.40142h2.1352c1.0262 0 1.6551.34759 1.6551 1.34069 0 .99311-.6289 1.34069-1.6551 1.34069h-2.1352z"/><path d="m49.396 12.4138h2.9793v-4.28693h2.7642c2.4662 0 4.0055-1.29104 4.0055-3.7738s-1.5393-3.77379-4.0055-3.77379h-5.7435zm2.9793-9.40142h2.1352c1.0262 0 1.6552.34759 1.6552 1.34069 0 .99311-.629 1.34069-1.6552 1.34069h-2.1352z"/><path d="m65.0723 12.6786c3.7242 0 5.8593-2.6152 5.8593-6.19035 0-3.55862-2.1351-6.173797-5.8593-6.173797-3.7572 0-5.8593 2.615177-5.8593 6.173797 0 3.57515 2.1021 6.19035 5.8593 6.19035zm0-2.4331c-2.1683 0-2.88-1.68829-2.88-3.75725 0-2.05242.7117-3.74069 2.88-3.74069 2.1517 0 2.88 1.68827 2.88 3.74069 0 2.06896-.7283 3.75725-2.88 3.75725z"/><path d="m71.4124.57928v11.83452h8.2428v-2.43314h-5.2635v-9.40138z"/><path d="m80.1092.57928v11.83452h8.2427v-2.43314h-5.2634v-9.40138z"/><path d="m93.765 12.6786c3.7241 0 5.8593-2.6152 5.8593-6.19035 0-3.55862-2.1352-6.173797-5.8593-6.173797-3.7573 0-5.8593 2.615177-5.8593 6.173797 0 3.57515 2.102 6.19035 5.8593 6.19035zm0-2.4331c-2.1683 0-2.88-1.68829-2.88-3.75725 0-2.05242.7117-3.74069 2.88-3.74069 2.1517 0 2.88 1.68827 2.88 3.74069 0 2.06896-.7283 3.75725-2.88 3.75725z"/><path d="m20.1215 26.2069h2.8137v-7.3655h.0331l2.2014 7.3655h2.0855l2.2014-7.3655h.0331v7.3655h2.8138v-11.8345h-3.6414l-2.4331 7.5476h-.0331l-2.4331-7.5476h-3.6413z"/><path d="m36.2426 18.9076v-2.1021h5.9917v-2.4331h-8.971v11.8345h9.0703v-2.4331h-6.091v-2.4331h5.1641v-2.4331z"/><path d="m42.9945 26.2069h5.4124c3.2938 0 5.1145-2.1021 5.1145-5.909s-1.9862-5.9255-5.28-5.9255h-5.2469zm2.9793-9.4014h1.9697c1.8538 0 2.5986 1.3407 2.5986 3.4924s-.7448 3.4759-2.5986 3.4759h-1.9697z"/><path d="m54.0192 14.3724v11.8345h2.9794v-11.8345z"/><path d="m64.7701 23.7407.7614 2.4662h2.9793l-4.2703-11.8345h-2.9794l-4.2868 11.8345h2.9793l.7613-2.4662zm-3.3765-2.2676 1.3406-4.3697h.0332l1.3406 4.3697z"/><path clip-rule="evenodd" d="m10.2346 13.7467c-.48703 0-.88288-.3985-.88288-.8893 0-.4914.39585-.8892.88288-.8892.4882 0 .884.3978.884.8892 0 .4908-.3958.8893-.884.8893zm-5.88125.5423c.0329.0255 1.10106.8537 2.74502.8288 1.64402.0249 2.71275-.8033 2.74565-.8288-.00582.0255-.43701 1.6666-2.74565 1.6571-2.30864.0095-2.73921-1.6316-2.74502-1.6571zm-1.27463-1.4316c0-.4914.39585-.8892.8829-.8892.48755 0 .88346.3978.88346.8892 0 .4908-.39591.8893-.88346.8893-.48705 0-.8829-.3985-.8829-.8893zm11.11848-5.84167c-.0488.02721-2.3239 1.32148-2.4086 3.46347 0 0-.0229-3.03421-1.291-5.02293-.85354-1.33799-2.40925-4.07087-.68823-5.45627 0 0-2.13514.738857-2.31158 4.97967-.08588 2.07928-1.90397 2.21132-2.2369.9532-.34469-1.29896-1.47515-3.33439-2.93798-3.42083 0 0 2.31271 2.11418 1.48873 3.92708-.15283.3361-.36712.69813-.5928 1.07941l-.00001.00001c-.50656.85583-1.07056 1.80868-1.1259 2.78306-1.08755-.55711-.80234-3.19943-.80234-3.19943s-.946948 1.3854-1.2457302 5.91453c-.3329328 3.6807 1.2133902 5.6374 3.7373202 6.4101.02186.0066.0438.0132.06581.0198-1.27447 1.0056-3.7930984 3.1488-3.672216 4.2916.161369 1.5266 1.226096 1.4291 1.484536 1.2669.12878-.0818.23298-.3481.23298-.3481.00094-.0038.07487-.3728-.01345-.5736-.03734-.0846-.12578-.0984-.1902-.0836-.0825.018-.17813.0932-.17582.2454l-.12872.0018c-.00331-.2159.13654-.3428.27689-.3743.14505-.0319.28021.0315.33594.1584.10702.2436.01301.6216.00801.6402.1356.0071.35914-.0186.46065-.2512.09319-.2126.05705-.4396.02172-.6614-.03105-.195-.06146-.3859-.00302-.5599.10631-.3162 1.15942-2.6582 2.18582-3.5553.01849.0034.03704.0067.0557.01l.0004.0001c-.26446 1.0673-.8512 3.5635-1.11345 5.6877 0 0-.77488.4595-.64566.7348s2.66759.0304 2.66759.0304.64566-2.4492 1.46264-2.9694c.81785.5202 1.46301 2.9694 1.46301 2.9694s2.53816.2449 2.66756-.0304c.1288-.2753-.6458-.7348-.6458-.7348-.2727-2.211-.89766-4.8252-1.14381-5.8109h.00012c.00938-.0018.0182-.0042.02702-.0071l.00009-.0001c1.07118.7847 2.22388 3.344 2.33528 3.6756.0585.174.0281.3649-.003.5599-.0353.2218-.0715.4488.0217.6614.1016.2326.3251.2583.4607.2512-.005-.0186-.099-.3966.008-.6402.0557-.1269.1909-.1903.3359-.1584.1404.0315.2802.1584.2769.3743l-.1287-.0018c.0023-.1522-.0933-.2274-.1758-.2454-.0644-.0148-.1529-.001-.1902.0836-.0883.2008-.0144.5698-.0135.5736 0 0 .1042.2663.233.3481.2585.1622 1.3232.2597 1.4846-1.2669.1278-1.2088-2.6975-3.5369-3.8799-4.4541h.0002c2.2739-.8567 3.632-2.7951 3.3185-6.2674-.5505-4.64284.617-5.96782.647-6.00097zm-2.5876-1.14036c-.8999-1.9273.8885-3.31551.8885-3.31551-.6065 1.06122-.5675 2.18961-.0815 3.39901.4856 1.20964-.3936 2.3755-.3936 2.3755s.1124-1.33211-.4134-2.459z" fill-rule="evenodd"/></g></svg>

<svg width="100" height="27" viewBox="0 0 100 27" fill="none" xmlns="http://www.w3.org/2000/svg">
<path d="M23.0346 12.4138H26.0139V3.01238H29.4401V0.57928H19.5918V3.01238H23.0346V12.4138Z" fill="white"/>
<path d="M35.3501 9.94756L36.1115 12.4138H39.0908L34.8204 0.57928H31.8411L27.5542 12.4138H30.5335L31.2949 9.94756H35.3501ZM31.9735 7.67997L33.3142 3.31032H33.3473L34.688 7.67997H31.9735Z" fill="white"/>
<path d="M39.2607 12.4138H42.24V8.12687H45.0041C47.4703 8.12687 49.0096 6.83583 49.0096 4.35307C49.0096 1.87031 47.4703 0.57928 45.0041 0.57928H39.2607V12.4138ZM42.24 3.01238H44.3752C45.4014 3.01238 46.0303 3.35997 46.0303 4.35307C46.0303 5.34618 45.4014 5.69376 44.3752 5.69376H42.24V3.01238Z" fill="white"/>
<path d="M49.396 12.4138H52.3753V8.12687H55.1395C57.6057 8.12687 59.145 6.83583 59.145 4.35307C59.145 1.87031 57.6057 0.57928 55.1395 0.57928H49.396V12.4138ZM52.3753 3.01238H54.5105C55.5367 3.01238 56.1657 3.35997 56.1657 4.35307C56.1657 5.34618 55.5367 5.69376 54.5105 5.69376H52.3753V3.01238Z" fill="white"/>
<path d="M65.0723 12.6786C68.7965 12.6786 70.9316 10.0634 70.9316 6.48825C70.9316 2.92963 68.7965 0.314453 65.0723 0.314453C61.3151 0.314453 59.213 2.92963 59.213 6.48825C59.213 10.0634 61.3151 12.6786 65.0723 12.6786ZM65.0723 10.2455C62.904 10.2455 62.1923 8.55721 62.1923 6.48825C62.1923 4.43583 62.904 2.74756 65.0723 2.74756C67.224 2.74756 67.9523 4.43583 67.9523 6.48825C67.9523 8.55721 67.224 10.2455 65.0723 10.2455Z" fill="white"/>
<path d="M71.4124 0.57928V12.4138H79.6552V9.98066H74.3917V0.57928H71.4124Z" fill="white"/>
<path d="M80.1092 0.57928V12.4138H88.3519V9.98066H83.0885V0.57928H80.1092Z" fill="white"/>
<path d="M93.765 12.6786C97.4891 12.6786 99.6243 10.0634 99.6243 6.48825C99.6243 2.92963 97.4891 0.314453 93.765 0.314453C90.0077 0.314453 87.9057 2.92963 87.9057 6.48825C87.9057 10.0634 90.0077 12.6786 93.765 12.6786ZM93.765 10.2455C91.5967 10.2455 90.885 8.55721 90.885 6.48825C90.885 4.43583 91.5967 2.74756 93.765 2.74756C95.9167 2.74756 96.645 4.43583 96.645 6.48825C96.645 8.55721 95.9167 10.2455 93.765 10.2455Z" fill="white"/>
<path d="M20.1215 26.2069H22.9352V18.8414H22.9683L25.1697 26.2069H27.2552L29.4566 18.8414H29.4897V26.2069H32.3035V14.3724H28.6621L26.229 21.92H26.1959L23.7628 14.3724H20.1215V26.2069Z" fill="white"/>
<path d="M36.2426 18.9076V16.8055H42.2343V14.3724H33.2633V26.2069H42.3336V23.7738H36.2426V21.3407H41.4067V18.9076H36.2426Z" fill="white"/>
<path d="M42.9945 26.2069H48.4069C51.7007 26.2069 53.5214 24.1048 53.5214 20.2979C53.5214 16.491 51.5352 14.3724 48.2414 14.3724H42.9945V26.2069ZM45.9738 16.8055H47.9435C49.7973 16.8055 50.5421 18.1462 50.5421 20.2979C50.5421 22.4496 49.7973 23.7738 47.9435 23.7738H45.9738V16.8055Z" fill="white"/>
<path d="M54.0192 14.3724V26.2069H56.9986V14.3724H54.0192Z" fill="white"/>
<path d="M64.7701 23.7407L65.5315 26.2069H68.5108L64.2405 14.3724H61.2611L56.9743 26.2069H59.9536L60.7149 23.7407H64.7701ZM61.3936 21.4731L62.7342 17.1034H62.7674L64.108 21.4731H61.3936Z" fill="white"/>
<path fill-rule="evenodd" clip-rule="evenodd" d="M10.2346 13.7467C9.74757 13.7467 9.35172 13.3482 9.35172 12.8574C9.35172 12.366 9.74757 11.9682 10.2346 11.9682C10.7228 11.9682 11.1186 12.366 11.1186 12.8574C11.1186 13.3482 10.7228 13.7467 10.2346 13.7467ZM4.35335 14.289C4.38625 14.3145 5.45441 15.1427 7.09837 15.1178C8.74239 15.1427 9.81112 14.3145 9.84402 14.289C9.8382 14.3145 9.40701 15.9556 7.09837 15.9461C4.78973 15.9556 4.35916 14.3145 4.35335 14.289ZM3.07872 12.8574C3.07872 12.366 3.47457 11.9682 3.96162 11.9682C4.44917 11.9682 4.84508 12.366 4.84508 12.8574C4.84508 13.3482 4.44917 13.7467 3.96162 13.7467C3.47457 13.7467 3.07872 13.3482 3.07872 12.8574ZM14.1972 7.01573C14.1484 7.04294 11.8733 8.33721 11.7886 10.4792C11.7886 10.4792 11.7657 7.44499 10.4976 5.45627C9.64406 4.11828 8.08835 1.3854 9.80937 0C9.80937 0 7.67423 0.738857 7.49779 4.97967C7.41191 7.05895 5.59382 7.19099 5.26089 5.93287C4.9162 4.63391 3.78574 2.59848 2.32291 2.51204C2.32291 2.51204 4.63562 4.62622 3.81164 6.43912C3.65881 6.77522 3.44452 7.13725 3.21884 7.51853L3.21883 7.51854C2.71227 8.37437 2.14827 9.32722 2.09293 10.3016C1.00538 9.74449 1.29059 7.10217 1.29059 7.10217C1.29059 7.10217 0.343642 8.48757 0.0448598 13.0167C-0.288073 16.6974 1.25825 18.6541 3.78218 19.4268C3.80404 19.4334 3.82598 19.44 3.84799 19.4466C2.57352 20.4522 0.0548916 22.5954 0.175774 23.7382C0.337143 25.2648 1.40187 25.1673 1.66031 25.0051C1.78909 24.9233 1.89329 24.657 1.89329 24.657C1.89423 24.6532 1.96816 24.2842 1.87984 24.0834C1.8425 23.9988 1.75406 23.985 1.68964 23.9998C1.60714 24.0178 1.51151 24.093 1.51382 24.2452L1.3851 24.247C1.38179 24.0311 1.52164 23.9042 1.66199 23.8727C1.80704 23.8408 1.9422 23.9042 1.99793 24.0311C2.10495 24.2747 2.01094 24.6527 2.00594 24.6713C2.14154 24.6784 2.36508 24.6527 2.46659 24.4201C2.55978 24.2075 2.52364 23.9805 2.48831 23.7587C2.45726 23.5637 2.42685 23.3728 2.48529 23.1988C2.5916 22.8826 3.64471 20.5406 4.67111 19.6435C4.6896 19.6469 4.70815 19.6502 4.72681 19.6535L4.72721 19.6536C4.46275 20.7209 3.87601 23.2171 3.61376 25.3413C3.61376 25.3413 2.83888 25.8008 2.9681 26.0761C3.09732 26.3514 5.63569 26.1065 5.63569 26.1065C5.63569 26.1065 6.28135 23.6573 7.09833 23.1371C7.91618 23.6573 8.56134 26.1065 8.56134 26.1065C8.56134 26.1065 11.0995 26.3514 11.2289 26.0761C11.3577 25.8008 10.5831 25.3413 10.5831 25.3413C10.3104 23.1303 9.68544 20.5161 9.43929 19.5304L9.43941 19.5304C9.44879 19.5286 9.45761 19.5262 9.46643 19.5233L9.46652 19.5232C10.5377 20.3079 11.6904 22.8672 11.8018 23.1988C11.8603 23.3728 11.8299 23.5637 11.7988 23.7587C11.7635 23.9805 11.7273 24.2075 11.8205 24.4201C11.9221 24.6527 12.1456 24.6784 12.2812 24.6713C12.2762 24.6527 12.1822 24.2747 12.2892 24.0311C12.3449 23.9042 12.4801 23.8408 12.6251 23.8727C12.7655 23.9042 12.9053 24.0311 12.902 24.247L12.7733 24.2452C12.7756 24.093 12.68 24.0178 12.5975 23.9998C12.5331 23.985 12.4446 23.9988 12.4073 24.0834C12.319 24.2842 12.3929 24.6532 12.3938 24.657C12.3938 24.657 12.498 24.9233 12.6268 25.0051C12.8853 25.1673 13.95 25.2648 14.1114 23.7382C14.2392 22.5294 11.4139 20.2013 10.2315 19.2841L10.2317 19.2841C12.5056 18.4274 13.8637 16.489 13.5502 13.0167C12.9997 8.37386 14.1672 7.04888 14.1972 7.01573ZM11.6096 5.87537C10.7097 3.94807 12.4981 2.55986 12.4981 2.55986C11.8916 3.62108 11.9306 4.74947 12.4166 5.95887C12.9022 7.16851 12.023 8.33437 12.023 8.33437C12.023 8.33437 12.1354 7.00226 11.6096 5.87537Z" fill="white"/>
</svg>
